suite-common/icons/assets/icons/hiddenWallet.svg

<svg xmlns="http://www.w3.org/2000/svg" xml:space="preserve" fill="none" viewBox="0 0 24 24">
  <path fill="#000" fill-rule="evenodd" d="M11.163.845a4.16 4.16 0 0 0-2.941 2.392c-.3.689-.313.79-.339 2.623L7.86 7.5l-1.88.02c-1.839.02-1.884.022-2.073.109-.465.214-.788.619-.865 1.082-.032.192-.041 1.828-.033 5.709l.011 5.44.112.24c.147.315.455.624.764.767l.244.113h15.72l.244-.113c.309-.143.617-.452.764-.767l.112-.24.011-5.44c.008-3.881-.001-5.517-.033-5.709-.081-.483-.423-.895-.911-1.096-.227-.093-.231-.093-2.077-.094l-1.85-.001V6.05c0-1.933-.057-2.288-.497-3.114a4.12 4.12 0 0 0-4.46-2.091m1.343 1.454c.514.097.929.327 1.34.74.28.282.376.412.506.685.262.551.268.601.268 2.276v1.5H9.38V5.98c.001-1.701.01-1.776.291-2.32.219-.424.729-.919 1.169-1.135a2.52 2.52 0 0 1 1.666-.226M19.51 14.25l-.01 5.25h-15l-.01-5.25L4.48 9h15.04z"/>
</svg>

<svg xmlns="http://www.w3.org/2000/svg" xml:space="preserve" fill="none" viewBox="0 0 24 24"><path d="M11.163 0.845 C 9.861 1.118,8.753 2.019,8.222 3.237 C 7.922 3.926,7.909 4.027,7.883 5.860 L 7.860 7.500 5.980 7.520 C 4.141 7.540,4.096 7.542,3.907 7.629 C 3.442 7.843,3.119 8.248,3.042 8.711 C 3.010 8.903,3.001 10.539,3.009 14.420 L 3.020 19.860 3.132 20.100 C 3.279 20.415,3.587 20.724,3.896 20.867 L 4.140 20.980 12.000 20.980 L 19.860 20.980 20.104 20.867 C 20.413 20.724,20.721 20.415,20.868 20.100 L 20.980 19.860 20.991 14.420 C 20.999 10.539,20.990 8.903,20.958 8.711 C 20.877 8.228,20.535 7.816,20.047 7.615 C 19.820 7.522,19.816 7.522,17.970 7.521 L 16.120 7.520 16.120 6.050 C 16.120 4.117,16.063 3.762,15.623 2.936 C 14.770 1.331,12.937 0.472,11.163 0.845 M12.506 2.299 C 13.020 2.396,13.435 2.626,13.846 3.039 C 14.126 3.321,14.222 3.451,14.352 3.724 C 14.614 4.275,14.620 4.325,14.620 6.000 L 14.620 7.500 12.000 7.500 L 9.380 7.500 9.380 5.980 C 9.381 4.279,9.390 4.204,9.671 3.660 C 9.890 3.236,10.400 2.741,10.840 2.525 C 11.384 2.257,11.909 2.186,12.506 2.299 M19.510 14.250 L 19.500 19.500 12.000 19.500 L 4.500 19.500 4.490 14.250 L 4.480 9.000 12.000 9.000 L 19.520 9.000 19.510 14.250 " stroke="none" fill-rule="evenodd" fill="black"></path></svg>
